src/themes/images/github-logo.svg

<?xml version="1.0" encoding="UTF-8"?>
<svg fill="none" viewBox="0 0 24 24" xmlns="http://www.w3.org/2000/svg">
<path d="m12 0c-6.6298 0-12 5.5053-12 12.302 0 5.4373 3.4402 10.044 8.2063 11.675 0.59669 0.1132 0.81768-0.2644 0.81768-0.5966 0-0.2946-0.00737-1.0648-0.01473-2.0919-3.337 0.7401-4.0442-1.6463-4.0442-1.6463-0.54512-1.4197-1.3333-1.8049-1.3333-1.8049-1.0902-0.7627 0.08103-0.7476 0.08103-0.7476 1.2007 0.0906 1.8416 1.2687 1.8416 1.2687 1.0681 1.8804 2.8066 1.3367 3.4917 1.0195 0.1105-0.7929 0.41989-1.3367 0.75875-1.6463-2.6593-0.3021-5.4586-1.3593-5.4586-6.0716 0-1.3442 0.46409-2.4393 1.2376-3.3002-0.12523-0.31718-0.53775-1.5632 0.1105-3.2548 0 0 1.0092-0.33227 3.3002 1.2612 0.95765-0.27186 1.9816-0.40779 3.0055-0.41534 1.0166 0.00755 2.0479 0.14348 3.0055 0.41534 2.291-1.5934 3.3002-1.2612 3.3002-1.2612 0.6556 1.6916 0.2431 2.9452 0.1179 3.2548 0.7661 0.8609 1.2302 1.956 1.2302 3.3002 0 4.7274-2.8067 5.762-5.4807 6.0716 0.4273 0.3776 0.8177 1.1328 0.8177 2.2807 0 1.6463-0.0147 2.9678-0.0147 3.3756 0 0.3323 0.2136 0.7099 0.825 0.5891 4.7661-1.6312 8.1989-6.2378 8.1989-11.668 0-6.8041-5.3702-12.309-12-12.309z" clip-rule="evenodd" fill="#fff" fill-rule="evenodd"/>
</svg>

<svg width="24" height="24" viewBox="0 0 24 24" fill="none" xmlns="http://www.w3.org/2000/svg">
    <path fill-rule="evenodd" clip-rule="evenodd" d="M12 0C5.37017 0 0 5.50526 0 12.3019C0 17.7392 3.44015 22.3458 8.20626 23.977C8.80295 24.0902 9.02394 23.7126 9.02394 23.3804C9.02394 23.0858 9.01657 22.3156 9.00921 21.2885C5.67219 22.0286 4.96501 19.6422 4.96501 19.6422C4.41989 18.2225 3.63168 17.8373 3.63168 17.8373C2.54144 17.0746 3.71271 17.0897 3.71271 17.0897C4.91344 17.1803 5.55433 18.3584 5.55433 18.3584C6.62247 20.2388 8.36096 19.6951 9.04604 19.3779C9.15654 18.585 9.46593 18.0412 9.80479 17.7316C7.14549 17.4295 4.34622 16.3723 4.34622 11.66C4.34622 10.3158 4.81031 9.22074 5.58379 8.35984C5.45856 8.04266 5.04604 6.79662 5.69429 5.10501C5.69429 5.10501 6.7035 4.77274 8.99447 6.36616C9.95212 6.0943 10.9761 5.95837 12 5.95082C13.0166 5.95837 14.0479 6.0943 15.0055 6.36616C17.2965 4.77274 18.3057 5.10501 18.3057 5.10501C18.9613 6.79662 18.5488 8.05021 18.4236 8.35984C19.1897 9.22074 19.6538 10.3158 19.6538 11.66C19.6538 16.3874 16.8471 17.422 14.1731 17.7316C14.6004 18.1092 14.9908 18.8644 14.9908 20.0123C14.9908 21.6586 14.9761 22.9801 14.9761 23.3879C14.9761 23.7202 15.1897 24.0978 15.8011 23.977C20.5672 22.3458 24 17.7392 24 12.3094C24 5.50526 18.6298 0 12 0Z" fill="#fff"/>
</svg>
